X:1
T:Summer
N:https://www.youtube.com/watch?v=pVyZ5Xe5Xi4
C:Joe Hisaishi
M:4/4
R:
L:1/16
Q:1/4=98
K:F
"C" z8 "F" z4 CFGA|:"Dm" G2FF- F8 "Bb" CFGA|"C" G2FG- G.A2A- "F"A4 CFGA|"Dm" G2FF- F8 "Bb" CFGA|
"C" G2FG- G.c2A- "F" A4 A2B2|"C" c2 cc- c2c2 "Bb" c2AF- F2AB|"Am" c2cc- c2c2 "Dm7" c2AF- F2FG|
"G7" A2AA- A2A2 "Bb" A2d2 (3dAG F2|"C7sus" G4 G2GG "C" G2E2 CFGA:|
